images/acf-icon.svg

<svg width="256" height="256" viewBox="0 0 256 256" fill="none" xmlns="http://www.w3.org/2000/svg">
<path d="M56.96 7.0411L7.04 56.9689C2.52 61.4896 0 67.5706 0 73.9316V243.998C0 250.639 5.36 256 12 256H244C250.64 256 256 250.639 256 243.998V12.0019C256 5.36084 250.64 0 244 0H73.96C67.6 0 61.48 2.52039 57 7.0411H56.96Z" fill="url(#paint0_radial_84_8417)"/>
<g filter="url(#filter0_d_84_8417)">
<path d="M181.129 168.663H162.596V94.0793H211.999V111.447H181.129V124.756H210.225V141.692H181.129V168.666V168.663Z" fill="white"/>
<path opacity="0.05" d="M157.707 137.362H176.077C173.359 156.345 157.4 168.9 138.066 168.9C116.894 168.9 99.6553 153.029 99.6553 131.657C99.611 126.686 100.574 121.759 102.487 117.174C104.4 112.589 107.222 108.441 110.781 104.984C118.088 97.8862 127.896 93.9739 138.066 94.1001C157.221 94.1001 173.626 106.752 175.958 125.431H157.607C152.089 104.272 117.707 106.341 117.707 131.657C117.707 156.975 152.52 158.84 157.707 137.368V137.362Z" fill="#002447"/>
<path d="M153.948 137.362C150.796 148.042 139.579 154.392 128.538 151.733C117.49 149.064 110.568 138.354 112.862 127.467C115.152 116.577 125.835 109.402 137.058 111.219C141.656 111.843 145.896 114.048 149.055 117.456C151.239 119.711 152.877 122.438 153.845 125.428H171.659C169.327 106.706 152.877 94.1003 133.767 94.1003C123.596 93.9705 113.785 97.8807 106.476 104.978C102.914 108.436 100.091 112.585 98.1774 117.173C96.2641 121.76 95.3012 126.69 95.3473 131.663C95.3473 153.035 112.485 168.9 133.773 168.9C153.092 168.9 169.005 156.345 171.772 137.362H153.945H153.948Z" fill="white"/>
<path opacity="0.05" d="M98.5881 157.812H72.7959L68.5796 168.65H48.8418L79.0475 94H92.2121L123.619 168.675H102.78L98.582 157.812H98.5881ZM80.1274 139.334L79.4813 141.019H92.0028L91.569 139.754L85.739 123.746L80.1274 139.334Z" fill="#002447"/>
<path d="M93.7039 157.812H67.9541L63.7408 168.65H44L74.2088 94H87.3733L118.78 168.675H97.9505L93.7039 157.812ZM75.2856 139.334L74.6425 141.019H87.164L86.7272 139.754L80.9002 123.746L75.2886 139.334H75.2856Z" fill="white"/>
</g>
<defs>
<filter id="filter0_d_84_8417" x="36" y="86" width="183.999" height="90.8997" filterUnits="userSpaceOnUse" color-interpolation-filters="sRGB">
<feFlood flood-opacity="0" result="BackgroundImageFix"/>
<feColorMatrix in="SourceAlpha" type="matrix" values="0 0 0 0 0 0 0 0 0 0 0 0 0 0 0 0 0 0 127 0" result="hardAlpha"/>
<feOffset/>
<feGaussianBlur stdDeviation="4"/>
<feColorMatrix type="matrix" values="0 0 0 0 0 0 0 0 0 0.141176 0 0 0 0 0.278431 0 0 0 0.1 0"/>
<feBlend mode="normal" in2="BackgroundImageFix" result="effect1_dropShadow_84_8417"/>
<feBlend mode="normal" in="SourceGraphic" in2="effect1_dropShadow_84_8417" result="shape"/>
</filter>
<radialGradient id="paint0_radial_84_8417" cx="0" cy="0" r="1" gradientUnits="userSpaceOnUse" gradientTransform="rotate(45) scale(362.039)">
<stop stop-color="#0ECAD4"/>
<stop offset="1" stop-color="#006BD6"/>
</radialGradient>
</defs>
</svg>

<svg width="256" height="256" fill="none" xmlns="http://www.w3.org/2000/svg"><path d="M56.96 7.041L7.04 56.97A23.953 23.953 0 0 0 0 73.932v170.066C0 250.639 5.36 256 12 256h232c6.64 0 12-5.361 12-12.002V12.002C256 5.36 250.64 0 244 0H73.96C67.6 0 61.48 2.52 57 7.041h-.04z" fill="url(#paint0_radial_84_8417)"/><g filter="url(#filter0_d_84_8417)"><path d="M181.129 168.663h-18.533V94.079h49.403v17.368h-30.87v13.309h29.096v16.936h-29.096v26.974-.003z" fill="#fff"/><path opacity=".05" d="M157.707 137.362h18.37c-2.718 18.983-18.677 31.538-38.011 31.538-21.172 0-38.41-15.871-38.41-37.243a36.761 36.761 0 0 1 2.831-14.483 36.689 36.689 0 0 1 8.294-12.19A38.474 38.474 0 0 1 138.066 94.1c19.155 0 35.56 12.652 37.892 31.331h-18.351c-5.518-21.159-39.9-19.09-39.9 6.226 0 25.318 34.813 27.183 40 5.711v-.006z" fill="#002447"/><path d="M153.948 137.362c-3.152 10.68-14.369 17.03-25.41 14.371-11.048-2.669-17.97-13.379-15.676-24.266 2.29-10.89 12.973-18.065 24.196-16.248a20.034 20.034 0 0 1 11.997 6.237 20.558 20.558 0 0 1 4.79 7.972h17.814c-2.332-18.722-18.782-31.328-37.892-31.328a38.47 38.47 0 0 0-27.291 10.878 36.666 36.666 0 0 0-8.299 12.195 36.756 36.756 0 0 0-2.83 14.49c0 21.372 17.138 37.237 38.426 37.237 19.319 0 35.232-12.555 37.999-31.538h-17.827.003z" fill="#fff"/><path opacity=".05" d="M98.588 157.812H72.796L68.58 168.65H48.842L79.048 94h13.164l31.407 74.675H102.78l-4.198-10.863h.006zm-18.46-18.478l-.647 1.685h12.522l-.434-1.265-5.83-16.008-5.612 15.588z" fill="#002447"/><path d="M93.704 157.812h-25.75l-4.213 10.838H44L74.209 94h13.164l31.407 74.675H97.95l-4.246-10.863zm-18.418-18.478l-.644 1.685h12.522l-.437-1.265-5.827-16.008-5.611 15.588h-.003z" fill="#fff"/></g><defs><filter id="filter0_d_84_8417" x="36" y="86" width="183.999" height="90.9" filterUnits="userSpaceOnUse" color-interpolation-filters="sRGB"><feFlood flood-opacity="0" result="BackgroundImageFix"/><feColorMatrix in="SourceAlpha" values="0 0 0 0 0 0 0 0 0 0 0 0 0 0 0 0 0 0 127 0" result="hardAlpha"/><feOffset/><feGaussianBlur stdDeviation="4"/><feColorMatrix values="0 0 0 0 0 0 0 0 0 0.141176 0 0 0 0 0.278431 0 0 0 0.1 0"/><feBlend in2="BackgroundImageFix" result="effect1_dropShadow_84_8417"/><feBlend in="SourceGraphic" in2="effect1_dropShadow_84_8417" result="shape"/></filter><radialGradient id="paint0_radial_84_8417" cx="0" cy="0" r="1" gradientUnits="userSpaceOnUse" gradientTransform="rotate(45) scale(362.039)"><stop stop-color="#0ECAD4"/><stop offset="1" stop-color="#006BD6"/></radialGradient></defs></svg>
